src/assets/duotone/CloudConnection.svg

<svg width="24" height="24" viewBox="0 0 24 24"  xmlns="http://www.w3.org/2000/svg">
<path opacity="0.4" d="M19.2002 14.7802C18.3402 15.5702 17.2002 16.0102 16.0302 16.0002H6.37022C2.30022 15.7102 2.29022 9.80017 6.37022 9.51017H6.41022C3.62022 1.75017 15.4102 -1.33985 16.7602 6.80015C20.5302 7.28015 22.0602 12.2902 19.2002 14.7802Z" />
<path d="M18.75 21C18.75 21.41 18.41 21.75 18 21.75H14C13.95 21.75 13.91 21.75 13.86 21.73C13.57 22.47 12.84 23 12 23C11.16 23 10.43 22.47 10.14 21.73C10.09 21.75 10.05 21.75 10 21.75H6C5.59 21.75 5.25 21.41 5.25 21C5.25 20.59 5.59 20.25 6 20.25H10C10.05 20.25 10.09 20.25 10.14 20.27C10.34 19.75 10.75 19.34 11.27 19.14C11.25 19.09 11.25 19.05 11.25 19V16H12.75V19C12.75 19.05 12.75 19.09 12.73 19.14C13.25 19.34 13.66 19.75 13.86 20.27C13.91 20.25 13.95 20.25 14 20.25H18C18.41 20.25 18.75 20.59 18.75 21Z" />
</svg>

<?xml version="1.0" encoding="UTF-8"?>
<svg width="24" height="24" viewBox="0 0 24 24" xmlns="http://www.w3.org/2000/svg">
 <path d="m19.2 14.78c-0.86 0.79-2 1.23-3.17 1.22h-9.66c-4.07-0.29-4.08-6.2 0-6.49h0.04c-2.79-7.76 9-10.85 10.35-2.71 3.77 0.48 5.3 5.49 2.44 7.98z" opacity=".4"/>
 <path d="m18.75 21c0 0.41-0.34 0.75-0.75 0.75h-4c-0.05 0-0.09 0-0.14-0.02-0.29 0.74-1.02 1.27-1.86 1.27s-1.57-0.53-1.86-1.27c-0.05 0.02-0.09 0.02-0.14 0.02h-4c-0.41 0-0.75-0.34-0.75-0.75s0.34-0.75 0.75-0.75h4c0.05 0 0.09 0 0.14 0.02 0.2-0.52 0.61-0.93 1.13-1.13-0.02-0.05-0.02-0.09-0.02-0.14v-3h1.5v3c0 0.05 0 0.09-0.02 0.14 0.52 0.2 0.93 0.61 1.13 1.13 0.05-0.02 0.09-0.02 0.14-0.02h4c0.41 0 0.75 0.34 0.75 0.75z"/>
</svg>
